modules/coreui-icons-free/icons/drink.svg

<!-- Generated by IcoMoon.io -->
<svg version="1.1" xmlns="http://www.w3.org/2000/svg" width="24" height="24" viewBox="0 0 24 24">
<title>drink</title>
<path d="M12.827 6l0.179 1.5h4.52l-0.375 3h-5.311l-0.349-3h0.004l-0.179-1.5h-0l-0.002-0.018-0.521-4.482h-5.918v1.5h4.582l0.349 3h-4.281l1.898 15.186c0.097 0.744 0.726 1.313 1.488 1.314h6.926c0.762-0.001 1.392-0.57 1.488-1.306l0.001-0.008 1.898-15.186zM7.225 7.5h2.756l0.349 3h-2.73zM15.839 21h-6.926l-1.125-9h2.717l0.654 5.625h1.51l-0.654-5.625h4.949z"></path>
</svg>

<svg xmlns="http://www.w3.org/2000/svg" width="24" height="24" viewBox="0 0 24 24"><path d="M12.827 6l.179 1.5h4.52l-.375 3H11.84l-.349-3h.004L11.316 6l-.002-.018-.521-4.482H4.875V3h4.582l.349 3H5.525l1.898 15.186A1.504 1.504 0 008.911 22.5h6.926a1.503 1.503 0 001.488-1.306l.001-.008L19.224 6zM7.225 7.5h2.756l.349 3H7.6zM15.839 21H8.913l-1.125-9h2.717l.654 5.625h1.51L12.015 12h4.949z"/></svg>
